_includes/icons/ios-fire.svg

<svg fill="#666" height="50" viewBox="0 0 50 50" width="50" xmlns="http://www.w3.org/2000/svg"><path d="m20.84375-.03125c-.425781.0664063-.761719.390625-.84375.8125-1.5625 7.402344-4.738281 12.804688-7.59375 17.84375-2.855469 5.039063-5.4375 9.75-5.4375 15.6875 0 7.726563 5.078125 12.816406 11.84375 15.25.101563.039063.175781.121094.28125.15625.480469.191406 1.027344-.007812 1.273438-.460937.246093-.453125.117187-1.019532-.304688-1.320313-1.734375-1.339844-4.03125-4.496094-4.03125-7 0-2.75.554688-4.472656 1.34375-6.40625.617188-1.507812 1.375-3.285156 2.0625-5.46875 2.203125 2.75 2.53125 6 2.53125 6 .019531.46875.351563.859375.8125.957031.457031.097657.917969-.132812 1.125-.550781 0 0 3.472656-7.269531 3.15625-15.8125 5.691406 6.011719 7.941406 11.84375 7.90625 16.65625-.039062 5.585938-2.96875 9.96875-5.71875 11.84375-.378906.273438-.527344.765625-.355469 1.199219.167969.4375.609375.703125 1.074219.644531 7.226563-1.050781 13.0625-7.625 13.0625-15.78125 0-5.832031-1.6875-10.988281-5.1875-16.3125s-8.796875-10.855469-16.15625-17.65625c-.203125-.1914062-.472656-.2929688-.75-.28125-.03125 0-.0625 0-.09375 0zm.6875 2.96875c6.589844 6.167969 11.507813 11.347656 14.625 16.09375 3.332031 5.070313 4.8125 9.738281 4.8125 15.1875 0 5.609375-3.136719 10.21875-7.4375 12.4375 1.96875-2.617187 3.46875-6.128906 3.5-10.34375.042969-5.992187-2.867187-13.082031-10.34375-20.0625-.320312-.28125-.78125-.335937-1.160156-.132812-.375.199218-.585938.617187-.527344 1.039062.949219 6.410156-.660156 11.371094-1.8125 14.34375-.609375-1.667969-1.648437-3.652344-3.53125-5.28125-.269531-.230469-.640625-.304687-.976562-.195312-.335938.105468-.59375.382812-.679688.726562-.746094 3.042969-1.707031 5.007813-2.53125 7.03125-.824219 2.023438-1.5 4.117188-1.5 7.15625 0 1.734375.625 3.390625 1.5 4.84375-3.953125-2.464844-6.4375-6.21875-6.4375-11.46875 0-5.34375 2.3125-9.671875 5.15625-14.6875 2.621094-4.621094 5.601563-9.847656 7.34375-16.6875z"/></svg>

<svg xmlns="http://www.w3.org/2000/svg" viewBox="0 0 50 50" width="50" height="50" fill="#666"><path d="M 20.84375 -0.03125 C 20.417969 0.0351563 20.082031 0.359375 20 0.78125 C 18.4375 8.183594 15.261719 13.585938 12.40625 18.625 C 9.550781 23.664063 6.96875 28.375 6.96875 34.3125 C 6.96875 42.039063 12.046875 47.128906 18.8125 49.5625 C 18.914063 49.601563 18.988281 49.683594 19.09375 49.71875 C 19.574219 49.910156 20.121094 49.710938 20.367188 49.257813 C 20.613281 48.804688 20.484375 48.238281 20.0625 47.9375 C 18.328125 46.597656 16.03125 43.441406 16.03125 40.9375 C 16.03125 38.1875 16.585938 36.464844 17.375 34.53125 C 17.992188 33.023438 18.75 31.246094 19.4375 29.0625 C 21.640625 31.8125 21.96875 35.0625 21.96875 35.0625 C 21.988281 35.53125 22.320313 35.921875 22.78125 36.019531 C 23.238281 36.117188 23.699219 35.886719 23.90625 35.46875 C 23.90625 35.46875 27.378906 28.199219 27.0625 19.65625 C 32.753906 25.667969 35.003906 31.5 34.96875 36.3125 C 34.929688 41.898438 32 46.28125 29.25 48.15625 C 28.871094 48.429688 28.722656 48.921875 28.894531 49.355469 C 29.0625 49.792969 29.503906 50.058594 29.96875 50 C 37.195313 48.949219 43.03125 42.375 43.03125 34.21875 C 43.03125 28.386719 41.34375 23.230469 37.84375 17.90625 C 34.34375 12.582031 29.046875 7.050781 21.6875 0.25 C 21.484375 0.0585938 21.214844 -0.0429688 20.9375 -0.03125 C 20.90625 -0.03125 20.875 -0.03125 20.84375 -0.03125 Z M 21.53125 2.9375 C 28.121094 9.105469 33.039063 14.285156 36.15625 19.03125 C 39.488281 24.101563 40.96875 28.769531 40.96875 34.21875 C 40.96875 39.828125 37.832031 44.4375 33.53125 46.65625 C 35.5 44.039063 37 40.527344 37.03125 36.3125 C 37.074219 30.320313 34.164063 23.230469 26.6875 16.25 C 26.367188 15.96875 25.90625 15.914063 25.527344 16.117188 C 25.152344 16.316406 24.941406 16.734375 25 17.15625 C 25.949219 23.566406 24.339844 28.527344 23.1875 31.5 C 22.578125 29.832031 21.539063 27.847656 19.65625 26.21875 C 19.386719 25.988281 19.015625 25.914063 18.679688 26.023438 C 18.34375 26.128906 18.085938 26.40625 18 26.75 C 17.253906 29.792969 16.292969 31.757813 15.46875 33.78125 C 14.644531 35.804688 13.96875 37.898438 13.96875 40.9375 C 13.96875 42.671875 14.59375 44.328125 15.46875 45.78125 C 11.515625 43.316406 9.03125 39.5625 9.03125 34.3125 C 9.03125 28.96875 11.34375 24.640625 14.1875 19.625 C 16.808594 15.003906 19.789063 9.777344 21.53125 2.9375 Z"/></svg>
